X: 185
T: Vicar & Moses
%R: jig
M: 6/8
L: 1/8
Z: 2014 John Chambers <jc:trillian.mit.edu>
B: Chas & Sam Thompson "Twenty Four Country Dances for the Year 1772", London 1772, p.98
F: http://folkopedia.efdss.org/images/8/89/Thompson_24_1772.PDF
K: F
|:\
F2c cAc | dBd f3 | F2c cAF | E3F GE[cC] |\
F2c cAc | dBd g2f | edc dc=B | c3 [c3C3] :|
|:\
[cC]EF GAB | cAF dBG | gec afd | bag {f}e3 |\
fga cAF | def cAF | dcB cba | gfe f3 :|
% - - - - - - - - - - - - - - - - - - - - - - - - -
%%begintext align
%% The 1st Cu. cross over 2 Cu. .|. cross up again :|.
%% Right hands across round .|: Left hands back
%% again :|: set across & turn .||. the Wo. do the same :||.
%% cross over half figure .||: Right & Left :||:
%%endtext
% - - - - - - - - - - - - - - - - - - - - - - - - -

%%sep 1 1 500
%%sep 1 1 500
